; HEADER_BLOCK_START
; generated by OrcaSlicer 2.1.1 on 2024-07-26 at 23:13:33
; total layer number: 53
; filament_density: 1.24
; filament_diameter: 1.75
; max_z_height: 8.00
; HEADER_BLOCK_END

; THUMBNAIL_BLOCK_START

;
; THUMBNAIL_BLOCK_END

; THUMBNAIL_BLOCK_START

;
; THUMBNAIL_BLOCK_END

; external perimeters extrusion width = 0.40mm
; perimeters extrusion width = 0.45mm
; infill extrusion width = 0.45mm
; solid infill extrusion width = 0.45mm
; top infill extrusion width = 0.38mm
; support material extrusion width = 0.38mm
; first layer extrusion width = 0.45mm

; EXECUTABLE_BLOCK_START
M73 P0 R222
M201 X500 Y500 Z100 E5000
M203 X500 Y500 Z10 E60
M204 P500 R1000 T500
M205 X8.00 Y8.00 Z0.40 E5.00 ; sets the jerk limits, mm/sec
;TYPE:Custom
G90 ; use absolute coordinates
M83 ; extruder relative mode
M140 S65 ; set final bed temp
M104 S150 ; set temporary nozzle temp to prevent oozing during homing
G4 S10 ; allow partial nozzle warmup
G28 ; home all axis
G1 Z50 F240
G1 X2 Y10 F3000
M104 S205 ; set final nozzle temp
M190 S65 ; wait for bed temp to stabilize
M109 S205 ; wait for nozzle temp to stabilize
M73 P0 R221
G1 Z0.28 F240
G92 E0
G1 Y140 E10 F1500 ; prime the nozzle
G1 X2.3 F5000
G92 E0
G1 Y10 E10 F1200 ; prime the nozzle
G92 E0
G90
G21
M83 ; use relative distances for extrusion
; filament start gcode
M900 K0.028; Override pressure advance value
M106 S0
;LAYER_CHANGE
;Z:0.2
;HEIGHT:0.2
;BEFORE_LAYER_CHANGE
;0.2
G92 E0

G1 E-5 F3600
;_SET_FAN_SPEED_CHANGING_LAYER
G1 X65.873 Y65.873 F9000
G1 Z.2
G1 E5 F2400
;TYPE:Skirt
;WIDTH:0.45
G1 F3000
G1 X70.955 Y60.791 E.23841
G1 X71.536 Y60.314 E.02493
G1 X76.559 Y56.966 E.20023
G1 X85.839 Y52.336 E.34404
G1 X91.143 Y50.58 E.18532
G1 X94.668 Y49.703 E.12051
G1 X98.853 Y48.866 E.14159
G1 X99.601 Y48.792 E.02493
G1 X120.399 Y48.792 E.68988
G1 X121.147 Y48.866 E.02493
G1 X125.332 Y49.703 E.14159
G1 X128.857 Y50.58 E.12051
G1 X134.161 Y52.336 E.18532
G1 X143.441 Y56.966 E.34404
G1 X148.464 Y60.314 E.20023
G1 X149.045 Y60.791 E.02493
G1 X159.209 Y70.955 E.47683
G1 X159.686 Y71.536 E.02493
G1 X163.034 Y76.559 E.20023
G1 X167.664 Y85.839 E.34404
G1 X169.421 Y91.143 E.18532
G1 X170.297 Y94.668 E.12051
G1 X171.134 Y98.853 E.14159
G1 X171.209 Y99.601 E.02493
G1 X171.209 Y120.399 E.68988
G1 X171.134 Y121.147 E.02493
G1 X170.297 Y125.332 E.14159
G1 X169.339 Y129.138 E.13021
G1 X167.458 Y134.661 E.19351
G1 X163.272 Y143.031 E.31045
G1 X159.686 Y148.464 E.21593
G1 X159.209 Y149.045 E.02493
G1 X149.045 Y159.209 E.47683
G1 X148.464 Y159.686 E.02493
G1 X143.441 Y163.034 E.20023
G1 X134.161 Y167.664 E.34404
G1 X128.857 Y169.421 E.18532
G1 X125.332 Y170.297 E.12051
G1 X121.147 Y171.134 E.14159
G1 X120.399 Y171.209 E.02493
G1 X99.601 Y171.209 E.68988
G1 X98.853 Y171.134 E.02493
G1 X94.668 Y170.297 E.14159
G1 X90.862 Y169.339 E.13021
G1 X85.34 Y167.458 E.19351
G1 X76.969 Y163.272 E.31045
G1 X71.536 Y159.686 E.21593
G1 X70.955 Y159.209 E.02493
G1 X60.791 Y149.045 E.47683
G1 X60.314 Y148.464 E.02493
G1 X56.966 Y143.441 E.20023
G1 X52.336 Y134.161 E.34404
G1 X50.58 Y128.857 E.18532
G1 X49.703 Y125.332 E.12051
G1 X48.866 Y121.147 E.14159
G1 X48.792 Y120.399 E.02493
G1 X48.792 Y99.601 E.68988
G1 X48.866 Y98.853 E.02493
G1 X49.703 Y94.668 E.14159
G1 X50.661 Y90.862 E.13021
G1 X52.543 Y85.34 E.19351
G1 X56.728 Y76.969 E.31045
G1 X60.314 Y71.536 E.21593
G1 X60.791 Y70.955 E.02493
G1 X65.845 Y65.901 E.23709
G1 X66.132 Y66.189 F9000
G1 F3000
G1 X71.243 Y61.079 E.23974
G1 X71.762 Y60.653 E.02227
G1 X76.785 Y57.305 E.20023
G1 X85.968 Y52.722 E.34045
G1 X91.241 Y50.975 E.18429
G1 X94.748 Y50.102 E.11986
G1 X98.933 Y49.265 E.14159
G1 X99.601 Y49.199 E.02227
G1 X120.399 Y49.199 E.68988
G1 X121.067 Y49.265 E.02227
G1 X125.252 Y50.102 E.14159
G1 X128.759 Y50.975 E.11986
G1 X134.032 Y52.722 E.18429
G1 X143.216 Y57.305 E.34045
G1 X148.238 Y60.653 E.20023
G1 X148.757 Y61.079 E.02227
G1 X158.922 Y71.243 E.47683
G1 X159.347 Y71.762 E.02227
G1 X162.696 Y76.785 E.20023
G1 X167.278 Y85.968 E.34045
G1 X169.026 Y91.241 E.18429
G1 X169.898 Y94.748 E.11986
G1 X170.735 Y98.933 E.14159
G1 X170.801 Y99.601 E.02227
G1 X170.801 Y120.399 E.68988
G1 X170.735 Y121.067 E.02227
G1 X169.898 Y125.252 E.14159
G1 X168.952 Y129.01 E.12853
G1 X167.093 Y134.479 E.1916
G1 X162.908 Y142.849 E.31045
G1 X159.347 Y148.238 E.21425
G1 X158.922 Y148.757 E.02227
G1 X148.757 Y158.922 E.47683
G1 X148.238 Y159.347 E.02227
G1 X143.216 Y162.696 E.20023
G1 X134.032 Y167.278 E.34045
G1 X128.759 Y169.026 E.18429
G1 X125.252 Y169.898 E.11986
G1 X121.067 Y170.735 E.14159
G1 X120.399 Y170.801 E.02227
G1 X99.601 Y170.801 E.68988
G1 X98.933 Y170.735 E.02227
G1 X94.748 Y169.898 E.14159
G1 X90.99 Y168.952 E.12853
G1 X85.522 Y167.093 E.1916
G1 X77.151 Y162.908 E.31045
G1 X71.762 Y159.347 E.21425
G1 X71.243 Y158.922 E.02227
G1 X61.079 Y148.757 E.47683
G1 X60.653 Y148.238 E.02227
G1 X57.305 Y143.216 E.20023
G1 X52.722 Y134.032 E.34045
G1 X50.975 Y128.759 E.18429
G1 X50.102 Y125.252 E.11986
G1 X49.265 Y121.067 E.14159
G1 X49.199 Y120.399 E.02227
G1 X49.199 Y99.601 E.68988
G1 X49.265 Y98.933 E.02227
G1 X50.102 Y94.748 E.14159
G1 X51.048 Y90.99 E.12853
G1 X52.907 Y85.522 E.1916
G1 X57.092 Y77.151 E.31045
G1 X60.653 Y71.762 E.21425
G1 X61.079 Y71.243 E.02227
G1 X66.104 Y66.217 E.23576
; printing object TOR_cap_ф100-Тело001.stl id:0 copy 0
G1 E-3.8 F3600
;WIPE_START
G1 F3000
G1 X66.811 Y65.51 E-1.2
;WIPE_END
G1 X120.314 Y53.646 F9000
G1 E5 F2400
;TYPE:Support
G1 F1200
G1 X124.5 Y53.646 E.13884
G1 X124.5 Y54.484 E.02777
G1 X127.848 Y54.484 E.11107
G1 X127.848 Y55.321 E.02777
G1 X130.359 Y55.321 E.0833
G1 X130.359 Y56.158 E.02777
G1 X132.87 Y56.158 E.0833
G1 X132.87 Y56.995 E.02777
G1 X134.545 Y56.995 E.05553
G1 X134.545 Y57.832 E.02777
G1 X136.219 Y57.832 E.05553
G1 X136.219 Y58.669 E.02777
G1 X137.893 Y58.669 E.05553
G1 X137.893 Y59.506 E.02777
G1 X139.567 Y59.506 E.05553
G1 X139.567 Y60.343 E.02777
G1 X141.241 Y60.343 E.05553
G1 X141.241 Y61.18 E.02777
G1 X142.078 Y61.18 E.02777
G1 X142.078 Y62.017 E.02777
G1 X143.753 Y62.017 E.05553
G1 X143.753 Y62.854 E.02777
G1 X144.59 Y62.854 E.02777
G1 X144.59 Y63.691 E.02777
G1 X146.264 Y63.691 E.05553
G1 X146.264 Y64.528 E.02777
G1 X147.101 Y64.528 E.02777
G1 X147.101 Y65.366 E.02777
G1 X147.938 Y65.366 E.02777
G1 X147.938 Y66.203 E.02777
G1 X148.775 Y66.203 E.02777
G1 X148.775 Y67.04 E.02777
G1 X149.612 Y67.04 E.02777
G1 X149.612 Y67.877 E.02777
G1 X150.449 Y67.877 E.02777
G1 X150.449 Y68.714 E.02777
G1 X151.286 Y68.714 E.02777
G1 X151.286 Y69.551 E.02777
G1 X152.123 Y69.551 E.02777
G1 X152.123 Y70.388 E.02777
G1 X152.96 Y70.388 E.02777
G1 X152.96 Y71.225 E.02777
G1 X153.797 Y71.225 E.02777
G1 X153.797 Y72.062 E.02777
G1 X154.635 Y72.062 E.02777
G1 X154.635 Y72.899 E.02777
G1 X155.472 Y72.899 E.02777
G1 X155.472 Y73.736 E.02777
G1 X156.309 Y73.736 E.02777
G1 X156.309 Y75.41 E.05553
G1 X157.146 Y75.41 E.02777
G1 X157.146 Y76.248 E.02777
G1 X157.983 Y76.248 E.02777
G1 X157.983 Y77.922 E.05553
G1 X158.82 Y77.922 E.02777
G1 X158.82 Y78.759 E.02777
G1 X159.657 Y78.759 E.02777
G1 X159.657 Y80.433 E.05553
G1 X160.494 Y80.433 E.02777
G1 X160.494 Y82.107 E.05553
G1 X161.331 Y82.107 E.02777
G1 X161.331 Y83.781 E.05553
G1 X162.168 Y83.781 E.02777
G1 X162.168 Y85.455 E.05553
G1 X163.005 Y85.455 E.02777
G1 X163.005 Y87.13 E.05553
G1 X163.842 Y87.13 E.02777
G1 X163.842 Y89.641 E.0833
G1 X164.68 Y89.641 E.02777
G1 X164.68 Y92.152 E.0833
G1 X165.517 Y92.152 E.02777
G1 X165.517 Y95.5 E.11107
G1 X166.354 Y95.5 E.02777
G1 X166.354 Y99.686 E.13884
G1 X167.191 Y99.686 E.02777
G1 X167.191 Y120.314 E.68428
G1 X166.354 Y120.314 E.02777
G1 X166.354 Y124.5 E.13884
G1 X165.517 Y124.5 E.02777
G1 X165.517 Y127.848 E.11107
G1 X164.68 Y127.848 E.02777
G1 X164.68 Y130.359 E.0833
G1 X163.842 Y130.359 E.02777
G1 X163.842 Y132.87 E.0833
G1 X163.005 Y132.87 E.02777
G1 X163.005 Y134.545 E.05553
G1 X162.168 Y134.545 E.02777
G1 X162.168 Y136.219 E.05553
G1 X161.331 Y136.219 E.02777
G1 X161.331 Y137.893 E.05553
G1 X160.494 Y137.893 E.02777
G1 X160.494 Y139.567 E.05553
G1 X159.657 Y139.567 E.02777
G1 X159.657 Y141.241 E.05553
G1 X158.82 Y141.241 E.02777
G1 X158.82 Y142.078 E.02777
G1 X157.983 Y142.078 E.02777
G1 X157.983 Y143.753 E.05553
G1 X157.146 Y143.753 E.02777
G1 X157.146 Y144.59 E.02777
G1 X156.309 Y144.59 E.02777
G1 X156.309 Y146.264 E.05553
G1 X155.472 Y146.264 E.02777
G1 X155.472 Y147.101 E.02777
G1 X154.635 Y147.101 E.02777
G1 X154.635 Y147.938 E.02777
G1 X153.797 Y147.938 E.02777
G1 X153.797 Y148.775 E.02777
G1 X152.96 Y148.775 E.02777
G1 X152.96 Y149.612 E.02777
G1 X152.123 Y149.612 E.02777
G1 X152.123 Y150.449 E.02777
G1 X151.286 Y150.449 E.02777
G1 X151.286 Y151.286 E.02777
G1 X150.449 Y151.286 E.02777
G1 X150.449 Y152.123 E.02777
G1 X149.612 Y152.123 E.02777
G1 X149.612 Y152.96 E.02777
G1 X148.775 Y152.96 E.02777
G1 X148.775 Y153.797 E.02777
G1 X147.938 Y153.797 E.02777
G1 X147.938 Y154.635 E.02777
G1 X147.101 Y154.635 E.02777
G1 X147.101 Y155.472 E.02777
G1 X146.264 Y155.472 E.02777
G1 X146.264 Y156.309 E.02777
G1 X144.59 Y156.309 E.05553
G1 X144.59 Y157.146 E.02777
G1 X143.753 Y157.146 E.02777
G1 X143.753 Y157.983 E.02777
G1 X142.078 Y157.983 E.05553
G1 X142.078 Y158.82 E.02777
G1 X141.241 Y158.82 E.02777
G1 X141.241 Y159.657 E.02777
G1 X139.567 Y159.657 E.05553
G1 X139.567 Y160.494 E.02777
G1 X137.893 Y160.494 E.05553
G1 X137.893 Y161.331 E.02777
G1 X136.219 Y161.331 E.05553
G1 X136.219 Y162.168 E.02777
G1 X134.545 Y162.168 E.05553
G1 X134.545 Y163.005 E.02777
G1 X132.87 Y163.005 E.05553
G1 X132.87 Y163.842 E.02777
G1 X130.359 Y163.842 E.0833
G1 X130.359 Y164.68 E.02777
G1 X127.848 Y164.68 E.0833
G1 X127.848 Y165.517 E.02777
G1 X124.5 Y165.517 E.11107
G1 X124.5 Y166.354 E.02777
G1 X120.314 Y166.354 E.13884
G1 X120.314 Y167.191 E.02777
G1 X99.686 Y167.191 E.68428
G1 X99.686 Y166.354 E.02777
M73 P0 R220
G1 X95.5 Y166.354 E.13884
G1 X95.5 Y165.517 E.02777
G1 X92.152 Y165.517 E.11107
G1 X92.152 Y164.68 E.02777
G1 X89.641 Y164.68 E.0833
G1 X89.641 Y163.842 E.02777
G1 X87.13 Y163.842 E.0833
G1 X87.13 Y163.005 E.02777
G1 X85.455 Y163.005 E.05553
G1 X85.455 Y162.168 E.02777
G1 X83.781 Y162.168 E.05553
G1 X83.781 Y161.331 E.02777
G1 X82.107 Y161.331 E.05553
G1 X82.107 Y160.494 E.02777
G1 X80.433 Y160.494 E.05553
G1 X80.433 Y159.657 E.02777
G1 X78.759 Y159.657 E.05553
G1 X78.759 Y158.82 E.02777
G1 X77.922 Y158.82 E.02777
G1 X77.922 Y157.983 E.02777
G1 X76.248 Y157.983 E.05553
G1 X76.248 Y157.146 E.02777
G1 X75.41 Y157.146 E.02777
G1 X75.41 Y156.309 E.02777
G1 X73.736 Y156.309 E.05553
G1 X73.736 Y155.472 E.02777
G1 X72.899 Y155.472 E.02777
G1 X72.899 Y154.635 E.02777
G1 X72.062 Y154.635 E.02777
G1 X72.062 Y153.797 E.02777
G1 X71.225 Y153.797 E.02777
G1 X71.225 Y152.96 E.02777
G1 X70.388 Y152.96 E.02777
G1 X70.388 Y152.123 E.02777
G1 X69.551 Y152.123 E.02777
G1 X69.551 Y151.286 E.02777
G1 X68.714 Y151.286 E.02777
G1 X68.714 Y150.449 E.02777
G1 X67.877 Y150.449 E.02777
G1 X67.877 Y149.612 E.02777
G1 X67.04 Y149.612 E.02777
G1 X67.04 Y148.775 E.02777
G1 X66.203 Y148.775 E.02777
G1 X66.203 Y147.938 E.02777
G1 X65.366 Y147.938 E.02777
G1 X65.366 Y147.101 E.02777
G1 X64.528 Y147.101 E.02777
G1 X64.528 Y146.264 E.02777
G1 X63.691 Y146.264 E.02777
G1 X63.691 Y144.59 E.05553
G1 X62.854 Y144.59 E.02777
G1 X62.854 Y143.753 E.02777
G1 X62.017 Y143.753 E.02777
G1 X62.017 Y142.078 E.05553
G1 X61.18 Y142.078 E.02777
G1 X61.18 Y141.241 E.02777
G1 X60.343 Y141.241 E.02777
G1 X60.343 Y139.567 E.05553
G1 X59.506 Y139.567 E.02777
G1 X59.506 Y137.893 E.05553
G1 X58.669 Y137.893 E.02777
G1 X58.669 Y136.219 E.05553
G1 X57.832 Y136.219 E.02777
G1 X57.832 Y134.545 E.05553
G1 X56.995 Y134.545 E.02777
G1 X56.995 Y132.87 E.05553
G1 X56.158 Y132.87 E.02777
G1 X56.158 Y130.359 E.0833
G1 X55.321 Y130.359 E.02777
G1 X55.321 Y127.848 E.0833
G1 X54.484 Y127.848 E.02777
G1 X54.484 Y124.5 E.11107
G1 X53.646 Y124.5 E.02777
G1 X53.646 Y120.314 E.13884
G1 X52.809 Y120.314 E.02777
G1 X52.809 Y99.686 E.68428
G1 X53.646 Y99.686 E.02777
G1 X53.646 Y95.5 E.13884
G1 X54.484 Y95.5 E.02777
G1 X54.484 Y92.152 E.11107
G1 X55.321 Y92.152 E.02777
G1 X55.321 Y89.641 E.0833
G1 X56.158 Y89.641 E.02777
G1 X56.158 Y87.13 E.0833
G1 X56.995 Y87.13 E.02777
G1 X56.995 Y85.455 E.05553
G1 X57.832 Y85.455 E.02777
G1 X57.832 Y83.781 E.05553
G1 X58.669 Y83.781 E.02777
G1 X58.669 Y82.107 E.05553
G1 X59.506 Y82.107 E.02777
G1 X59.506 Y80.433 E.05553
G1 X60.343 Y80.433 E.02777
G1 X60.343 Y78.759 E.05553
G1 X61.18 Y78.759 E.02777
G1 X61.18 Y77.922 E.02777
G1 X62.017 Y77.922 E.02777
G1 X62.017 Y76.248 E.05553
G1 X62.854 Y76.248 E.02777
G1 X62.854 Y75.41 E.02777
G1 X63.691 Y75.41 E.02777
G1 X63.691 Y73.736 E.05553
G1 X64.528 Y73.736 E.02777
G1 X64.528 Y72.899 E.02777
G1 X65.366 Y72.899 E.02777
G1 X65.366 Y72.062 E.02777
G1 X66.203 Y72.062 E.02777
G1 X66.203 Y71.225 E.02777
G1 X67.04 Y71.225 E.02777
G1 X67.04 Y70.388 E.02777
G1 X67.877 Y70.388 E.02777
G1 X67.877 Y69.551 E.02777
G1 X68.714 Y69.551 E.02777
G1 X68.714 Y68.714 E.02777
G1 X69.551 Y68.714 E.02777
G1 X69.551 Y67.877 E.02777
G1 X70.388 Y67.877 E.02777
G1 X70.388 Y67.04 E.02777
G1 X71.225 Y67.04 E.02777
G1 X71.225 Y66.203 E.02777
G1 X72.062 Y66.203 E.02777
G1 X72.062 Y65.366 E.02777
G1 X72.899 Y65.366 E.02777
G1 X72.899 Y64.528 E.02777
G1 X73.736 Y64.528 E.02777
G1 X73.736 Y63.691 E.02777
G1 X75.41 Y63.691 E.05553
G1 X75.41 Y62.854 E.02777
G1 X76.248 Y62.854 E.02777
G1 X76.248 Y62.017 E.02777
G1 X77.922 Y62.017 E.05553
G1 X77.922 Y61.18 E.02777
G1 X78.759 Y61.18 E.02777
G1 X78.759 Y60.343 E.02777
G1 X80.433 Y60.343 E.05553
G1 X80.433 Y59.506 E.02777
G1 X82.107 Y59.506 E.05553
G1 X82.107 Y58.669 E.02777
G1 X83.781 Y58.669 E.05553
G1 X83.781 Y57.832 E.02777
G1 X85.455 Y57.832 E.05553
G1 X85.455 Y56.995 E.02777
G1 X87.13 Y56.995 E.05553
G1 X87.13 Y56.158 E.02777
G1 X89.641 Y56.158 E.0833
G1 X89.641 Y55.321 E.02777
G1 X92.152 Y55.321 E.0833
G1 X92.152 Y54.484 E.02777
G1 X95.5 Y54.484 E.11107
G1 X95.5 Y53.646 E.02777
G1 X99.686 Y53.646 E.13884
G1 X99.686 Y52.809 E.02777
G1 X120.314 Y52.809 E.68428
G1 X120.314 Y53.585 E.02574
G1 X109.549 Y87.083 F9000
G1 F1200
G1 X108.287 Y87.14 E.04191
G1 X107.03 Y87.272 E.04191
G1 X106.019 Y87.424 E.03392
G1 X104.782 Y87.68 E.04191
G1 X103.791 Y87.932 E.03392
G1 X102.585 Y88.311 E.04191
G1 X101.625 Y88.66 E.03392
G1 X100.682 Y89.058 E.03392
G1 X99.541 Y89.6 E.04191
G1 X98.435 Y90.21 E.04191
G1 X97.562 Y90.743 E.03392
G1 X96.522 Y91.46 E.04191
G1 X95.706 Y92.077 E.03392
G1 X94.923 Y92.734 E.03392
G1 X93.993 Y93.589 E.04191
G1 X93.115 Y94.498 E.04191
G1 X92.438 Y95.265 E.03392
G1 X91.801 Y96.064 E.03392
G1 X91.058 Y97.087 E.04191
G1 X90.504 Y97.946 E.03392
G1 X89.867 Y99.037 E.04191
G1 X89.4 Y99.947 E.03392
G1 X88.875 Y101.096 E.04191
G1 X88.419 Y102.274 E.04191
G1 X88.093 Y103.243 E.03392
G1 X87.757 Y104.461 E.04191
G1 X87.529 Y105.458 E.03392
G1 X87.352 Y106.465 E.03392
G1 X87.189 Y107.718 E.04191
G1 X87.1 Y108.978 E.04191
G1 X87.075 Y110.001 E.03392
G1 X87.1 Y111.023 E.03392
G1 X87.189 Y112.283 E.04191
G1 X87.316 Y113.298 E.03392
G1 X87.529 Y114.543 E.04191
G1 X87.757 Y115.54 E.03392
G1 X88.093 Y116.758 E.04191
G1 X88.419 Y117.727 E.03392
G1 X88.875 Y118.906 E.04191
G1 X89.4 Y120.055 E.04191
G1 X89.867 Y120.965 E.03392
G1 X90.504 Y122.056 E.04191
G1 X91.058 Y122.915 E.03392
G1 X91.801 Y123.937 E.04191
G1 X92.438 Y124.737 E.03392
G1 X93.115 Y125.503 E.03392
G1 X93.993 Y126.412 E.04191
G1 X94.923 Y127.267 E.04191
G1 X95.706 Y127.924 E.03392
G1 X96.522 Y128.542 E.03392
G1 X97.562 Y129.258 E.04191
G1 X98.435 Y129.792 E.03392
G1 X99.541 Y130.401 E.04191
G1 X100.682 Y130.944 E.04191
G1 X101.625 Y131.341 E.03392
G1 X102.585 Y131.691 E.03392
G1 X103.791 Y132.069 E.04191
G1 X104.782 Y132.321 E.03392
G1 X106.019 Y132.577 E.04191
G1 X107.269 Y132.76 E.04191
G1 X108.287 Y132.862 E.03392
G1 X109.308 Y132.913 E.03392
G1 X110.572 Y132.919 E.04191
G1 X111.593 Y132.868 E.03392
G1 X112.851 Y132.748 E.04191
G1 X113.862 Y132.595 E.03392
G1 X115.101 Y132.351 E.04191
G1 X116.324 Y132.033 E.04191
G1 X117.301 Y131.732 E.03392
G1 X118.487 Y131.294 E.04191
G1 X119.429 Y130.897 E.03392
G1 X120.35 Y130.453 E.03392
